data/styles/clear/style-night/symbols/taoist-m.svg

<svg height="24" viewBox="0 0 24 24" width="24"><g fill="none" fill-rule="evenodd"><circle cx="12" cy="12" fill="#fff" opacity=".4" r="12"/><circle cx="12" cy="12" fill="#4d361f" r="11"/><path d="m11.715625 5c-1.75 0-3.355625.70875-4.615625 1.96875-1.33 1.33-2.1 3.07125-2.1 5.03125 0 3.85 3.00125 7 6.78125 7h.21875c3.85 0 7-3.15 7-7s-3.15-7-7-7zm.065625 1.4c1.54 0 3.71875.84 3.71875 2.8 0 1.82-1.4 2.66-3.15 2.8-1.4.07-2.734375.77875-3.434375 1.96875-.56.98-.494375 1.876875-.284375 2.646875-1.33-1.05-2.23125-2.725625-2.23125-4.615625 0-1.54.564375-3.01875 1.684375-4.06875.98-.98 2.226875-1.53125 3.696875-1.53125zm.21875 1.4c-.7731983 0-1.4.62680135-1.4 1.4s.6268017 1.4 1.4 1.4 1.4-.62680135 1.4-1.4-.6268017-1.4-1.4-1.4zm0 6.3c.77 0 1.4.63 1.4 1.4s-.63 1.4-1.4 1.4-1.4-.63-1.4-1.4.63-1.4 1.4-1.4z" fill="#fff" fill-rule="nonzero" opacity=".6"/></g></svg>

<svg width="24" height="24" viewBox="0 0 24 24">
  <g fill="none" fill-rule="evenodd">
    <circle cx="12" cy="12" r="12" fill="#FFF" opacity=".4"/>
    <circle cx="12" cy="12" r="11" fill="#4C351E"/>
    <path fill="#FFF" fill-rule="nonzero" d="M11.715625,5 C9.965625,5 8.36,5.70875 7.1,6.96875 C5.77,8.29875 5,10.04 5,12 C5,15.85 8.00125,19 11.78125,19 L12,19 C15.85,19 19,15.85 19,12 C19,8.15 15.85,5 12,5 L11.715625,5 Z M11.78125,6.4 C13.32125,6.4 15.5,7.24 15.5,9.2 C15.5,11.02 14.1,11.86 12.35,12 C10.95,12.07 9.615625,12.77875 8.915625,13.96875 C8.355625,14.94875 8.42125,15.845625 8.63125,16.615625 C7.30125,15.565625 6.4,13.89 6.4,12 C6.4,10.46 6.964375,8.98125 8.084375,7.93125 C9.064375,6.95125 10.31125,6.4 11.78125,6.4 Z M12,7.8 C11.2268017,7.8 10.6,8.42680135 10.6,9.2 C10.6,9.97319865 11.2268017,10.6 12,10.6 C12.7731983,10.6 13.4,9.97319865 13.4,9.2 C13.4,8.42680135 12.7731983,7.8 12,7.8 Z M12,14.1 C12.77,14.1 13.4,14.73 13.4,15.5 C13.4,16.27 12.77,16.9 12,16.9 C11.23,16.9 10.6,16.27 10.6,15.5 C10.6,14.73 11.23,14.1 12,14.1 Z" opacity=".6"/>
  </g>
</svg>
